2 Export/Icons/Brands/Firefox.svg

<svg xmlns="http://www.w3.org/2000/svg" xmlns:xlink="http://www.w3.org/1999/xlink" width="24" height="24" viewBox="0 0 24 24">
  <defs>
    <path id="firefox-a" d="M20.3853288,11.2259696 C20.3625632,11.0666105 20.3322091,10.9679595 20.3322091,10.9679595 C20.3322091,10.9679595 20.2715008,11.0438449 20.1652614,11.1804384 C20.1349073,10.7934233 20.0666105,10.4064081 19.960371,10.03457 C19.8237774,9.56408094 19.6492411,9.10876897 19.4291737,8.6762226 C19.2925801,8.38785835 19.1332209,8.10708263 18.9435076,7.84907251 C18.8448567,7.69730185 18.7613828,7.58347386 18.7462057,7.56070826 C18.4198988,7.02951096 18.0556492,6.71079258 17.6231029,6.10370995 C17.3499157,5.64080944 17.1602024,5.12478921 17.06914,4.59359191 C16.9477234,4.91231029 16.856661,5.24620573 16.7959528,5.58010118 C16.3634064,5.13996627 15.9763912,4.82124789 15.7487352,4.60876897 C14.6104553,3.54637437 14.7470489,3 14.7470489,3 C14.7470489,3 12.6222597,5.36762226 13.5404722,7.83389545 C13.8591906,8.66863406 14.4055649,9.40472175 15.1264755,9.94350759 C16.0143339,10.6720067 16.970489,11.2487352 17.4713322,12.7284992 C17.06914,11.9468803 16.4544688,11.301855 15.703204,10.8541315 C15.93086,11.3929174 16.044688,11.9620573 16.0370995,12.5463744 C16.0370995,14.762226 14.2386172,16.5607083 12.0151771,16.5607083 C11.7192243,16.5607083 11.415683,16.5303541 11.1273187,16.4620573 C10.7782462,16.3937605 10.4443508,16.2799325 10.1332209,16.1205734 C9.66273187,15.8397976 9.2529511,15.4679595 8.93423272,15.0202361 L8.93423272,15.0126476 C8.97217538,15.0278246 8.99494098,15.0354132 9.00252951,15.0354132 C9.16947723,15.0961214 9.33642496,15.1416526 9.51096121,15.1720067 C10.1939292,15.3161889 10.8996627,15.232715 11.529511,14.9367622 C12.1669477,14.5801012 12.5539629,14.3220911 12.8650927,14.420742 C13.1762226,14.5193929 13.4114671,14.2234401 13.1989882,13.9123103 C12.8195616,13.4190556 12.1973019,13.1838111 11.5902192,13.2900506 C10.9527825,13.381113 10.3684654,13.8288364 9.54131535,13.3962901 C9.48060708,13.3659359 9.43507589,13.3355818 9.38195616,13.3052277 C9.32883642,13.267285 9.56408094,13.3507589 9.50337268,13.3128162 C9.32124789,13.2217538 9.14671164,13.1231029 8.97976391,13.0016863 C8.97217538,12.9940978 9.10876897,13.039629 9.09359191,13.0320405 C8.88111298,12.8878583 8.69139966,12.698145 8.54721754,12.4780776 C8.40303541,12.2124789 8.38785835,11.886172 8.50927487,11.6053963 C8.59274874,11.4612142 8.70657673,11.3549747 8.85075885,11.2866779 C8.95699831,11.3397976 9.02529511,11.3777403 9.02529511,11.3777403 C9.02529511,11.3777403 8.97217538,11.2866779 8.94940978,11.2411467 C8.95699831,11.2335582 8.96458685,11.2411467 8.97976391,11.2335582 C9.07082631,11.2715008 9.27571669,11.3777403 9.38954469,11.4460371 C9.46543002,11.4839798 9.52613828,11.544688 9.57925801,11.6129848 C9.57925801,11.6129848 9.61720067,11.5978078 9.58684654,11.5143339 C9.54890388,11.415683 9.48060708,11.3322091 9.38954469,11.2790894 L9.40472175,11.2790894 C9.48819562,11.3246206 9.56408094,11.3701518 9.63996627,11.43086 C9.70826307,11.2639123 9.74620573,11.0969646 9.7386172,10.9224283 C9.74620573,10.8237774 9.73102867,10.7251265 9.70067454,10.6416526 C9.6703204,10.5809444 9.7158516,10.5581788 9.76897133,10.618887 C9.7613828,10.5733558 9.74620573,10.5278246 9.72344013,10.4822934 C9.72344013,10.4822934 9.75379427,10.4367622 9.76897133,10.4291737 C9.806914,10.391231 9.84485666,10.3532884 9.89038786,10.3305228 C10.1559865,10.163575 10.4291737,10.0193929 10.7175379,9.90556492 C10.9527825,9.806914 11.1424958,9.72344013 11.1804384,9.70067454 C11.2411467,9.66273187 11.2942664,9.62478921 11.3473862,9.57925801 C11.544688,9.41231029 11.6736931,9.1846543 11.7192243,8.93423272 C11.7268128,8.89629005 11.7268128,8.86593592 11.7268128,8.83558179 L11.7268128,8.77487352 C11.6964587,8.64586847 11.4763912,8.55480607 10.3305228,8.44097808 C9.92833052,8.38026981 9.60202361,8.0767285 9.51096121,7.67453626 L9.51096121,7.68212479 C9.49578415,7.72006745 9.48060708,7.76559865 9.46543002,7.81112985 C9.48060708,7.76559865 9.49578415,7.72765599 9.51096121,7.68212479 L9.51096121,7.67453626 C9.73102867,7.10539629 10.1256324,6.61214165 10.6340641,6.27824621 C10.6644182,6.25548061 10.5202361,6.28583474 10.5505902,6.26306914 C10.6416526,6.21753794 10.7403035,6.17200675 10.846543,6.13406408 C10.8996627,6.11888702 10.6264755,6.01264755 10.3836425,6.03541315 C10.2394604,6.04300169 10.0952782,6.08094435 9.95868465,6.13406408 C10.0193929,6.08853288 10.1863406,6.02782462 10.148398,6.02782462 C9.83726813,6.08094435 9.54131535,6.19477234 9.27571669,6.35413153 C9.27571669,6.3237774 9.28330523,6.3010118 9.29089376,6.27824621 C9.07841484,6.3693086 8.88870152,6.51349073 8.75210793,6.69561551 L8.75210793,6.59696459 C8.653457,6.67284992 8.56998314,6.75632378 8.48650927,6.84738617 L8.47892074,6.84738617 C7.84907251,6.60455312 7.16610455,6.54384486 6.49831366,6.68043845 L6.49072513,6.67284992 L6.49831366,6.67284992 C6.36172007,6.56661046 6.24030354,6.43001686 6.14924115,6.27824621 L6.14165261,6.28583474 L6.12647555,6.27065767 C6.08094435,6.20994941 6.04300169,6.13406408 5.99747049,6.05059022 C5.95952782,5.99747049 5.92917369,5.92917369 5.89123103,5.8608769 C5.89123103,5.8608769 5.89123103,5.85328836 5.8836425,5.85328836 C5.87605396,5.85328836 5.8608769,5.92158516 5.85328836,5.89881956 C5.73946037,5.59527825 5.67875211,5.26897133 5.69392917,4.95025295 L5.68634064,4.95025295 C5.49662732,5.07925801 5.35244519,5.2613828 5.2841484,5.48145025 C5.24620573,5.55733558 5.22344013,5.59527825 5.20067454,5.64080944 L5.20067454,5.61804384 L5.22344013,5.50421585 C5.2158516,5.51180438 5.2158516,5.51939292 5.20826307,5.52698145 C5.15514334,5.58768971 5.10961214,5.65598651 5.07166948,5.73187184 C5.03372681,5.80016863 5.00337268,5.87605396 4.98060708,5.95193929 L4.98060708,5.91399663 C4.98060708,5.8836425 4.98819562,5.8381113 4.98060708,5.85328836 L4.97301855,5.87605396 C4.7301855,6.4148398 4.57082631,6.9915683 4.51770658,7.58347386 C4.50252951,7.68971332 4.50252951,7.78836425 4.50252951,7.88701518 L4.50252951,7.90219224 C4.32799325,8.09190556 4.1762226,8.29679595 4.03962901,8.51686341 C3.5994941,9.26053963 3.27318718,10.0649241 3.0682968,10.9072513 C3.21247892,10.5885329 3.38701518,10.277403 3.59190556,9.98903879 C3.19730185,10.9831366 3,12.0303541 3,13.0927487 C3.0682968,12.7816189 3.15177066,12.4780776 3.25042159,12.1745363 C3.18971332,13.4266442 3.43254637,14.6787521 3.95615514,15.8246206 C4.6618887,17.4030354 5.83052277,18.7310287 7.31787521,19.6264755 C7.91736931,20.0362563 8.57757167,20.3549747 9.26812816,20.5674536 C9.35919056,20.5978078 9.45784148,20.6357504 9.54890388,20.6661046 C9.51854975,20.6509275 9.49578415,20.6357504 9.46543002,20.6281619 C10.2849916,20.8709949 11.1424958,21 12,21 C15.0430017,21 16.044688,19.8389545 16.143339,19.7251265 C16.2875211,19.5885329 16.4165261,19.4291737 16.5,19.2394604 C16.5607083,19.2166948 16.613828,19.1939292 16.6745363,19.163575 L16.7124789,19.148398 C16.7580101,19.1256324 16.7807757,19.1180438 16.7807757,19.1180438 C17.2436762,18.8979764 17.6762226,18.6323777 18.0708263,18.3136594 C18.6627319,17.8887015 19.0801012,17.2664418 19.262226,16.5607083 C19.376054,16.3026981 19.376054,16.0219224 19.2849916,15.7563238 C19.3305228,15.6804384 19.3684654,15.6121417 19.376054,15.5969646 C20.0286678,14.549747 20.4005059,13.3507589 20.4536256,12.113828 L20.4536256,12.1062395 L20.4536256,12.0075885 C20.4536256,11.7495784 20.43086,11.4839798 20.3853288,11.2259696 L20.3853288,11.2259696 Z"/>
  </defs>
  <g fill="none" fill-rule="evenodd">
    <polygon points="0 0 24 0 24 24 0 24"/>
    <mask id="firefox-b" fill="#fff">
      <use xlink:href="#firefox-a"/>
    </mask>
    <use fill="#000" xlink:href="#firefox-a"/>
    <g fill="#000" mask="url(#firefox-b)">
      <rect width="24" height="24"/>
    </g>
  </g>
</svg>

<svg xmlns="http://www.w3.org/2000/svg" xmlns:xlink="http://www.w3.org/1999/xlink" width="24" height="24" viewBox="0 0 24 24">
  <defs>
    <path id="firefox-a" d="M20.385 11.226c-.022-.16-.053-.258-.053-.258l-.167.212a5.852 5.852 0 0 0-.205-1.145 7.762 7.762 0 0 0-.53-1.359 5.025 5.025 0 0 0-.486-.827c-.1-.152-.183-.266-.198-.288-.326-.531-.69-.85-1.123-1.457a4.47 4.47 0 0 1-.554-1.51 5.595 5.595 0 0 0-.273.986c-.433-.44-.82-.759-1.047-.971C14.61 3.546 14.747 3 14.747 3s-2.125 2.368-1.207 4.834c.32.835.866 1.57 1.586 2.11.888.728 1.844 1.305 2.345 2.784a4.672 4.672 0 0 0-1.768-1.874c.228.539.342 1.108.334 1.692a4.018 4.018 0 0 1-4.91 3.916 3.76 3.76 0 0 1-.994-.341 3.975 3.975 0 0 1-1.199-1.1v-.008c.038.015.06.022.069.022.166.061.333.107.508.137.683.144 1.389.06 2.019-.235.637-.357 1.024-.615 1.335-.516.311.098.546-.198.334-.509a1.667 1.667 0 0 0-1.609-.622c-.637.091-1.222.539-2.049.106-.06-.03-.106-.06-.159-.09-.053-.039.182.045.121.007a3.66 3.66 0 0 1-.523-.311c-.008-.008.129.038.114.03a2 2 0 0 1-.547-.554 1.006 1.006 0 0 1-.038-.873.769.769 0 0 1 .342-.318c.106.053.174.09.174.09s-.053-.09-.076-.136c.008-.007.016 0 .03-.007.092.038.297.144.41.212a.57.57 0 0 1 .19.167s.038-.015.008-.099a.462.462 0 0 0-.197-.235h.015c.083.046.16.091.235.152.068-.167.106-.334.099-.509a.682.682 0 0 0-.038-.28c-.03-.061.015-.084.068-.023a.482.482 0 0 0-.046-.137s.03-.045.046-.053a.495.495 0 0 1 .121-.098 5.01 5.01 0 0 1 .828-.425c.235-.1.424-.183.462-.205.061-.038.114-.076.167-.122a1.1 1.1 0 0 0 .372-.645c.008-.038.008-.068.008-.098v-.061c-.03-.13-.25-.22-1.396-.334a.995.995 0 0 1-.82-.766v.007c-.015.038-.03.084-.046.13l.046-.13v-.007c.22-.57.615-1.063 1.123-1.397.03-.023-.114.008-.083-.015.09-.045.19-.091.296-.129.053-.015-.22-.121-.463-.099a1.386 1.386 0 0 0-.425.1c.06-.046.227-.107.19-.107a2.528 2.528 0 0 0-.873.326c0-.03.007-.053.015-.076a1.33 1.33 0 0 0-.539.418v-.099c-.099.076-.182.16-.265.25h-.008a3.525 3.525 0 0 0-1.98-.167l-.008-.007h.007a1.452 1.452 0 0 1-.349-.395l-.007.008-.016-.015c-.045-.061-.083-.137-.129-.22-.037-.054-.068-.122-.106-.19 0 0 0-.008-.007-.008-.008 0-.023.069-.03.046a2.401 2.401 0 0 1-.16-.949h-.008c-.19.13-.334.311-.402.531-.038.076-.06.114-.083.16v-.023l.022-.114c-.007.008-.007.015-.015.023a.964.964 0 0 0-.136.205 1.12 1.12 0 0 0-.091.22v-.038c0-.03.007-.076 0-.06l-.008.022a5.32 5.32 0 0 0-.455 1.707c-.015.107-.015.205-.015.304v.015c-.175.19-.327.395-.463.615a8.748 8.748 0 0 0-.972 2.39c.144-.318.319-.63.524-.918A8.386 8.386 0 0 0 3 13.093c.068-.311.152-.615.25-.918a7.87 7.87 0 0 0 .706 3.65 8.466 8.466 0 0 0 3.362 3.801c.6.41 1.26.729 1.95.941.091.03.19.069.28.1-.03-.016-.052-.031-.083-.039.82.243 1.677.372 2.535.372 3.043 0 4.045-1.161 4.143-1.275a1.52 1.52 0 0 0 .357-.486c.06-.022.114-.045.175-.075l.037-.016c.046-.022.069-.03.069-.03a6.45 6.45 0 0 0 1.29-.804 3.108 3.108 0 0 0 1.191-1.753c.114-.258.114-.54.023-.805.046-.076.083-.144.091-.159a7.165 7.165 0 0 0 1.078-3.483v-.106c0-.258-.023-.524-.069-.782z"/>
  </defs>
  <g fill="none" fill-rule="evenodd">
    <polygon points="0 0 24 0 24 24 0 24"/>
    <mask id="firefox-b" fill="#fff">
      <use xlink:href="#firefox-a"/>
    </mask>
    <use fill="#000" xlink:href="#firefox-a"/>
    <g fill="#000" mask="url(#firefox-b)">
      <rect width="24" height="24"/>
    </g>
  </g>
</svg>
